X: 1291
T: Blacktown Jig
C:Ray Schloeffel, (1957 - 2002)
B: australian traditional tunes wiki
M:6/8
L:1/8
R: Jig
Q: 3/8=100
K:Em
V:1 
"Em"beg ege|beg ege|"D"afd faf|dfaf2d|
"Em"ege Beg|eBe g2e|"D"f2f fed|fed "Em"e3:|
|:"Em"ege aeb|ege aeb|"C"ege aeb|bag agf|
"Am"ege aeb|ege aeb|"C"bag agf|"D"gfd "Em"e3:|
|:"Em"B2B BAG|"D"F2F FED|"G"B,2B, B,A,G,|"Am"A,3 A,B,C|
"Em"E3DEG|"D"A3 AGA|"C"BAG AGF|"D"GFD "Em"E3:|
% abcbook-tune_id 6342d53a1055972ea992ebf0


% abcbook-boost 0
% abcbook-tablature 
% abcbook-transpose 
% abcbook-lastupdated 1665324357642
% abcbook-soundfonts 
% abcbook-repeats 1
% NFF Book 2018

